X:1
T: Captain Fletcher's Favourite
C:Nathaniel Gow
R:Strathspey
Q: 128
K:F
M:4/4
L:1/16
AG|F2C2 C3D FEFG F2AB|d2d2 d2d2 G6AG|F2C2 C3D F3G Acde|f2f2 a2a2 A6AG|
F2C2 C3D FEFG F2AB|d2d2 d2d2 G6AG|F2C2 C3D F3G Acde|f2f2 a2a2 A6AB|
cdef gaeg f2d2 d2fd|c2c2 d2d2 G6AB|cdef gaeg f2f2 g2g2|a2a2 c2c2 A6fd|
c3d f3a gfga g3d|c2c2 d2d2 G6AG|F2F2 D2D2 C2C2 A,2fg|a2a2 c2c2 A6 ((3FAc) |
c4 B2A2 A4 B2c2|d2B2 G3F E4 FGAB|c3d1/2c1/2 B2A2 d3e f2d2|c2A2 B2G2 FABc defg||
